teams/dark/133.svg

<svg xmlns="http://www.w3.org/2000/svg" viewBox="0 0 300 300"><title>Athletics cap on dark logo</title><path fill="#fff" d="M231.96 197.61c.75-.75 7.19 0 3.97 4.7-3.22 4.71-30.31 45.33-30.31 45.33-9.85 15.4-25.49 3.81-32.28-16.57l-17.13-51.43h-48.6l-13.18 38.82c7.63 2.25 14.57 5.8 19.97 10.37 10.22-10.02 23.86-7.21 25.57-5.5L115 254c-39.63-28.77-83.33-10.04-89.29-.54 6.56-26.73 27.96-37.51 49.28-37.72l25.57-75.26c.01-.02.02-.04.02-.06 8.53-25.09-20.01-25.74-27.89-18.59 2.96-28.49 28.45-31.05 40.47-18.43l3.03-8.92c4.02-11.83 3.97-18.47-6.03-24.42C98.58 63.16 86 71.54 79.1 81.4c7.03-30.82 27.7-39.77 46.76-34.84 12.49 3.95 19.84 14.01 23.81 25.94l42.96 129.01c4.54 13.6 13.07 24.83 39.34-3.92Zm-82.61-38.6-17.19-51.61-17.53 51.61Zm41.88-51.55h-5.18V91.67h15.49v14.58l-10.46 13.66h-4.42Zm66.53 20.05c12.44 2.47 32.36 19.06 16.87 37.86-18.69 22.64-48.53 4.05-56.17-4.83l8.53-11.59c12.58 11.4 29.26 14.54 33.58 7.89 5.12-7.9-5.21-12.54-13.25-14.55-19.7-4.93-37.06-16.52-21.81-37.97 11.08-15.6 38.46-13.56 49.68 1.97l-9.66 9.86c-6.38-9.61-24.82-10.36-27.46-2.71-3.14 9.08 7.24 11.59 19.68 14.05Zm-23.05 117.07V254h-1.93v-7.49h-.04l-2.73 7.49h-1.85l-2.65-7.49h-.05V254h-1.92v-9.42h3.34l2.18 6.15h.05l2.29-6.15Zm-20.49 0h7.61v1.68h-2.84V254h-1.93v-7.74h-2.84Z"/></svg>

<svg width="300" height="300" viewBox="0 0 300 300" fill="none" xmlns="http://www.w3.org/2000/svg">
<path d="M231.96 197.61C232.71 196.86 239.15 197.61 235.93 202.31C232.71 207.02 205.62 247.64 205.62 247.64C195.77 263.04 180.13 251.45 173.34 231.07L156.21 179.64H107.61L94.43 218.46C102.06 220.71 109 224.26 114.4 228.83C124.62 218.81 138.26 221.62 139.97 223.33L115 254C75.37 225.23 31.67 243.96 25.71 253.46C32.27 226.73 53.67 215.95 74.99 215.74L100.56 140.48C100.57 140.46 100.58 140.44 100.58 140.42C109.11 115.33 80.57 114.68 72.69 121.83C75.65 93.34 101.14 90.78 113.16 103.4L116.19 94.48C120.21 82.65 120.16 76.01 110.16 70.06C98.58 63.16 86 71.54 79.1 81.4C86.13 50.58 106.8 41.63 125.86 46.56C138.35 50.51 145.7 60.57 149.67 72.5L192.63 201.51C197.17 215.11 205.7 226.34 231.97 197.59L231.96 197.61ZM149.35 159.01L132.16 107.4L114.63 159.01H149.35ZM191.23 107.46H186.05V91.67H201.54V106.25L191.08 119.91H186.66L191.23 107.46ZM257.76 127.51C270.2 129.98 290.12 146.57 274.63 165.37C255.94 188.01 226.1 169.42 218.46 160.54L226.99 148.95C239.57 160.35 256.25 163.49 260.57 156.84C265.69 148.94 255.36 144.3 247.32 142.29C227.62 137.36 210.26 125.77 225.51 104.32C236.59 88.72 263.97 90.76 275.19 106.29L265.53 116.15C259.15 106.54 240.71 105.79 238.07 113.44C234.93 122.52 245.31 125.03 257.75 127.49L257.76 127.51Z" fill="white"/>
</svg>
